src/styles/Illustrations/assets/campaigns/redFridaypig.svg

<svg id="Layer_1" xmlns="http://www.w3.org/2000/svg" xmlns:xlink="http://www.w3.org/1999/xlink" width="133.3" height="152.6"><style>.st0{fill:#adadad}.st1{fill:#666}.st3{fill:#999}.st4{fill:#ccc}.st5{fill:none;stroke:#999;stroke-width:2.7013;stroke-linecap:round;stroke-linejoin:round;stroke-miterlimit:10}</style><path class="st0" d="M95.6 54.9s15.5-7.4 26.6 2.5c0 0 2.1 2.1-1.4 4.1-4.3 2.4-14.1 5-12.4 10.1 3.2 9.2-12.8-16.7-12.8-16.7z"/><path class="st1" d="M.7 79.6c-.3-.6.3-1.4 1.2-1.8 5.9-3 8.8-7.2 8.5-10.5-.1-2-1.5-3.3-2.8-3.7-.7-.2-2.1-.4-3.2.9-.7.8-1.8.8-2.5.2-.8-.7-.8-1.8-.2-2.5 1.8-2.1 4.4-2.8 7.1-1.9 2.9 1 5.1 3.7 5.3 6.9.2 2.7-1.1 7.6-11.1 12.6-.8.4-2 .4-2.3-.2z"/><path d="M19.5 74.8c-7.2 3.5-22.1-4-16.4-11.6" fill="none" stroke="#999" stroke-width="3.602" stroke-linecap="round" stroke-linejoin="round" stroke-miterlimit="10"/><path class="st3" d="M64.8 133.2l-16.8-.5.4 9.7s5.2 5.3 15.8-.2l.6-9z"/><circle class="st4" cx="65.2" cy="90.7" r="50.4"/><path class="st3" d="M109.3 127.4l-16.7 2.3 2 9.5s6 4.4 15.6-2.8l-.9-9z"/><path class="st4" d="M112.7 73.7s4.6 13.6 14.9 16.3c0 0-10.8 59-57.4 50.2C23.5 131.4 49.7 74 49.7 74l63-.3z"/><path class="st5" d="M113.7 108.5c-.4 4.7-3.2 8.9-7.6 10.9-6.6 3-14.5-.2-17.5-7.1"/><ellipse transform="rotate(-30 115.297 101.796)" class="st3" cx="115.3" cy="101.8" rx="19" ry="14.9"/><path class="st4" d="M25.6 120.2l1.1 20.9s6.3 7.7 15.5 4.7l7.9-16.7-24.5-8.9zm45.2 18.1l20.7-.5-.5 12s-6.4 6.5-19.5-.3l-.7-11.2z"/><ellipse class="st0" cx="75.4" cy="106" rx="7.3" ry="7.2"/><path class="st5" d="M86.4 92.1c.2-2 1.3-3.8 3.2-4.6 2.8-1.3 6.1.1 7.4 3"/><ellipse class="st1" cx="109" cy="104.8" rx="4.4" ry="5.7"/><ellipse class="st1" cx="123.8" cy="98" rx="4.4" ry="5.7"/><defs><circle id="SVGID_1_" cx="65.2" cy="90.7" r="50.4"/></defs><clipPath id="SVGID_2_"><use xlink:href="#SVGID_1_" overflow="visible"/></clipPath><g clip-path="url(#SVGID_2_)"><path class="st3" d="M34.1 49.6s28-17.5 58.4 1.5l-10 3.9s-25.4-13.7-53.1-1.5l4.7-3.9z"/><defs><path id="SVGID_3_" d="M34.1 49.6s26.7-14.1 57.8 1.8L82.5 55s-24.8-13-53.1-1.5l4.7-3.9z"/></defs><clipPath id="SVGID_4_"><use xlink:href="#SVGID_3_" overflow="visible"/></clipPath><path d="M33.6 51S59.1 35 90 53.1l-8.4 4.2S66 45.6 28.5 55.8l5.1-4.8z" clip-path="url(#SVGID_4_)" fill="#666"/></g><path d="M53.7 68.9s15.5-7.4 26.6 2.5c0 0 2.5 3.1-1.4 4.1C71.5 77.3 60 82 56.4 86.9c-5.7 7.9-2.7-18-2.7-18z" clip-path="url(#SVGID_2_)" fill="#adadad"/><defs><path id="SVGID_5_" d="M49.7 48.9s15.5-1.6 31.7 5.6l16-22 2.4-12L88.7 7.2 50.9 5.4 34 23.2l15.7 25.7z"/></defs><clipPath id="SVGID_6_"><use xlink:href="#SVGID_5_" overflow="visible"/></clipPath><path d="M90.1 10.5C78 3.1 68.8 12.4 68.7 12.4c0 0-9.1-9.3-21.2-1.9 0 0-17.5 12-1 30s22.4 23 22.4 23 5.7-4.9 22.3-23c16.5-18-1.1-30-1.1-30z" clip-path="url(#SVGID_6_)" fill="#ed2c28"/></svg>

<?xml version="1.0" encoding="utf-8"?>
<!-- Generator: Adobe Illustrator 20.1.0, SVG Export Plug-In . SVG Version: 6.00 Build 0)  -->
<svg version="1.1" id="Layer_1" xmlns="http://www.w3.org/2000/svg" xmlns:xlink="http://www.w3.org/1999/xlink" x="0px" y="0px"
	 width="133.3px" height="152.6px" viewBox="0 0 133.3 152.6" style="enable-background:new 0 0 133.3 152.6;" xml:space="preserve"
	>
<style type="text/css">
	.st0{fill:#ADADAD;}
	.st1{fill:#666666;}
	.st2{fill:none;stroke:#999999;stroke-width:3.6017;stroke-linecap:round;stroke-linejoin:round;stroke-miterlimit:10;}
	.st3{fill:#999999;}
	.st4{fill:#CCCCCC;}
	.st5{fill:none;stroke:#999999;stroke-width:2.7013;stroke-linecap:round;stroke-linejoin:round;stroke-miterlimit:10;}
	.st6{clip-path:url(#SVGID_2_);}
	.st7{clip-path:url(#SVGID_4_);fill:#666666;}
	.st8{clip-path:url(#SVGID_2_);fill:#ADADAD;}
	.st9{clip-path:url(#SVGID_6_);fill:#ED2C28;}
</style>
<g>
	<g>
		<g>
			<g>
				<g>
					<g>
						<g>
							<g>
								<path class="st0" d="M95.6,54.9c0,0,15.5-7.4,26.6,2.5c0,0,2.1,2.1-1.4,4.1c-4.3,2.4-14.1,5-12.4,10.1
									C111.6,80.8,95.6,54.9,95.6,54.9z"/>
								<g>
									<path class="st1" d="M0.7,79.6C0.4,79,1,78.2,1.9,77.8c5.9-3,8.8-7.2,8.5-10.5c-0.1-2-1.5-3.3-2.8-3.7
										c-0.7-0.2-2.1-0.4-3.2,0.9c-0.7,0.8-1.8,0.8-2.5,0.2c-0.8-0.7-0.8-1.8-0.2-2.5c1.8-2.1,4.4-2.8,7.1-1.9
										c2.9,1,5.1,3.7,5.3,6.9C14.3,69.9,13,74.8,3,79.8C2.2,80.2,1,80.2,0.7,79.6z"/>
								</g>
								<path class="st2" d="M19.5,74.8c-7.2,3.5-22.1-4-16.4-11.6"/>
								<path class="st3" d="M64.8,133.2L48,132.7l0.4,9.7c0,0,5.2,5.3,15.8-0.2L64.8,133.2z"/>
								<circle class="st4" cx="65.2" cy="90.7" r="50.4"/>
								<path class="st3" d="M109.3,127.4l-16.7,2.3l2,9.5c0,0,6,4.4,15.6-2.8L109.3,127.4z"/>
								<path class="st4" d="M112.7,73.7c0,0,4.6,13.6,14.9,16.3c0,0-10.8,59-57.4,50.2C23.5,131.4,49.7,74,49.7,74L112.7,73.7z"/>
								<path class="st5" d="M113.7,108.5c-0.4,4.7-3.2,8.9-7.6,10.9c-6.6,3-14.5-0.2-17.5-7.1"/>
								<ellipse transform="matrix(0.866 -0.5 0.5 0.866 -35.4482 71.2889)" class="st3" cx="115.3" cy="101.8" rx="19" ry="14.9"/>
								<path class="st4" d="M25.6,120.2l1.1,20.9c0,0,6.3,7.7,15.5,4.7l7.9-16.7L25.6,120.2z"/>
								<path class="st4" d="M70.8,138.3l20.7-0.5l-0.5,12c0,0-6.4,6.5-19.5-0.3L70.8,138.3z"/>
								<ellipse class="st0" cx="75.4" cy="106" rx="7.3" ry="7.2"/>
								<path class="st5" d="M86.4,92.1c0.2-2,1.3-3.8,3.2-4.6c2.8-1.3,6.1,0.1,7.4,3"/>
								<ellipse class="st1" cx="109" cy="104.8" rx="4.4" ry="5.7"/>
								<ellipse class="st1" cx="123.8" cy="98" rx="4.4" ry="5.7"/>
								<g>
									<g>
										<g>
											<defs>
												<circle id="SVGID_1_" cx="65.2" cy="90.7" r="50.4"/>
											</defs>
											<clipPath id="SVGID_2_">
												<use xlink:href="#SVGID_1_"  style="overflow:visible;"/>
											</clipPath>
											<g class="st6">
												<path class="st3" d="M34.1,49.6c0,0,28-17.5,58.4,1.5l-10,3.9c0,0-25.4-13.7-53.1-1.5L34.1,49.6z"/>
												<g>
													<g>
														<g>
															<defs>
																<path id="SVGID_3_" d="M34.1,49.6c0,0,26.7-14.1,57.8,1.8L82.5,55c0,0-24.8-13-53.1-1.5L34.1,49.6z"/>
															</defs>
															<clipPath id="SVGID_4_">
																<use xlink:href="#SVGID_3_"  style="overflow:visible;"/>
															</clipPath>
															<path class="st7" d="M33.6,51c0,0,25.5-16,56.4,2.1l-8.4,4.2c0,0-15.6-11.7-53.1-1.5L33.6,51z"/>
														</g>
													</g>
												</g>
											</g>
											<path class="st8" d="M53.7,68.9c0,0,15.5-7.4,26.6,2.5c0,0,2.5,3.1-1.4,4.1C71.5,77.3,60,82,56.4,86.9
												C50.7,94.8,53.7,68.9,53.7,68.9z"/>
										</g>
									</g>
									<g>
										<g>
											<g>
												<defs>
													<path id="SVGID_5_" d="M49.7,48.9c0,0,15.5-1.6,31.7,5.6l16-22l2.4-12L88.7,7.2L50.9,5.4L34,23.2L49.7,48.9z"/>
												</defs>
												<clipPath id="SVGID_6_">
													<use xlink:href="#SVGID_5_"  style="overflow:visible;"/>
												</clipPath>
												<path class="st9" d="M90.1,10.5c-12.1-7.4-21.3,1.9-21.4,1.9c0,0-9.1-9.3-21.2-1.9c0,0-17.5,12-1,30
													c16.5,18,22.4,23,22.4,23s5.7-4.9,22.3-23C107.7,22.5,90.1,10.5,90.1,10.5z"/>
											</g>
										</g>
									</g>
								</g>
							</g>
						</g>
					</g>
				</g>
			</g>
		</g>
	</g>
</g>
</svg>
